resources/images/forest.svg

<svg xmlns="http://www.w3.org/2000/svg" viewBox="0 0 448 512"><!--! Font Awesome Pro 6.4.0 by @fontawesome - https://fontawesome.com License - https://fontawesome.com/license (Commercial License) Copyright 2023 Fonticons, Inc. --><path d="M210.6 5.9L62 169.4c-3.9 4.2-6 9.8-6 15.5C56 197.7 66.3 208 79.1 208H104L30.6 281.4c-4.2 4.2-6.6 10-6.6 16C24 309.9 34.1 320 46.6 320H80L5.4 409.5C1.9 413.7 0 419 0 424.5c0 13 10.5 23.5 23.5 23.5H192v32c0 17.7 14.3 32 32 32s32-14.3 32-32V448H424.5c13 0 23.5-10.5 23.5-23.5c0-5.5-1.9-10.8-5.4-15L368 320h33.4c12.5 0 22.6-10.1 22.6-22.6c0-6-2.4-11.8-6.6-16L344 208h24.9c12.7 0 23.1-10.3 23.1-23.1c0-5.7-2.1-11.3-6-15.5L237.4 5.9C234 2.1 229.1 0 224 0s-10 2.1-13.4 5.9z"/></svg>

<?xml version="1.0" encoding="UTF-8" standalone="no" ?>
<!DOCTYPE svg PUBLIC "-//W3C//DTD SVG 1.1//EN" "http://www.w3.org/Graphics/SVG/1.1/DTD/svg11.dtd">
<svg xmlns="http://www.w3.org/2000/svg" xmlns:xlink="http://www.w3.org/1999/xlink" version="1.1" width="1080" height="1080" viewBox="0 0 1080 1080" xml:space="preserve">
<desc>Created with Fabric.js 5.2.4</desc>
<defs>
</defs>
<rect x="0" y="0" width="100%" height="100%" fill="transparent"></rect>
<g transform="matrix(1 0 0 1 540 540)" id="9de24dbc-cae5-4dde-92e9-318c6f0617b6"  >
<rect style="stroke: none; stroke-width: 1; stroke-dasharray: none; stroke-linecap: butt; stroke-dashoffset: 0; stroke-linejoin: miter; stroke-miterlimit: 4; fill: rgb(255,255,255); fill-rule: nonzero; opacity: 1; visibility: hidden;" vector-effect="non-scaling-stroke"  x="-540" y="-540" rx="0" ry="0" width="1080" height="1080" />
</g>
<g transform="matrix(1 0 0 1 540 540)" id="306fc666-b2d7-41a8-82dc-ec6891540ac5"  >
</g>
<g transform="matrix(1 0 0 1 541 541)" id="7dc43f62-742b-4fd2-99bf-75bc7ce29d63"  >
<path style="stroke: rgb(0,0,0); stroke-width: 2; stroke-dasharray: none; stroke-linecap: butt; stroke-dashoffset: 0; stroke-linejoin: miter; stroke-miterlimit: 4; fill: rgb(0,255,25); fill-rule: nonzero; opacity: 1;" vector-effect="non-scaling-stroke"  transform=" translate(-224, -256)" d="M 210.6 5.9 L 62 169.4 C 58.1 173.6 56 179.20000000000002 56 184.9 C 56 197.7 66.3 208 79.1 208 L 104 208 L 30.6 281.4 C 26.400000000000002 285.59999999999997 24 291.4 24 297.4 C 24 309.9 34.1 320 46.6 320 L 80 320 L 5.4 409.5 C 1.9 413.7 0 419 0 424.5 C 0 437.5 10.5 448 23.5 448 L 192 448 L 192 480 C 192 497.7 206.3 512 224 512 C 241.7 512 256 497.7 256 480 L 256 448 L 424.5 448 C 437.5 448 448 437.5 448 424.5 C 448 419 446.1 413.7 442.6 409.5 L 368 320 L 401.4 320 C 413.9 320 424 309.9 424 297.4 C 424 291.4 421.6 285.59999999999997 417.4 281.4 L 344 208 L 368.9 208 C 381.59999999999997 208 392 197.7 392 184.9 C 392 179.20000000000002 389.9 173.6 386 169.4 L 237.4 5.9 C 234 2.1 229.1 0 224 0 C 218.9 0 214 2.1 210.6 5.9 z" stroke-linecap="round" />
</g>
</svg>
